icons/desktop/16/svg/lock-warning-16.svg

<svg width="16" height="16" viewBox="0 0 16 16" fill="none" xmlns="http://www.w3.org/2000/svg">
<path fill-rule="evenodd" clip-rule="evenodd" d="M11.04 9.19434C11.469 8.45834 12.532 8.45834 12.96 9.19434L15.8477 14.1533C16.2455 14.8373 15.822 15.7194 15.0371 15.8154C13.9111 15.9534 12.889 16 12 16C10.903 16 9.88954 15.9274 8.97754 15.8164C8.18378 15.7192 7.75048 14.8432 8.15332 14.1523L11.04 9.19434ZM12 13.585C11.6548 13.585 11.375 13.8648 11.375 14.21C11.375 14.5551 11.6548 14.835 12 14.835C12.3451 14.8349 12.625 14.5551 12.625 14.21C12.625 13.8648 12.3451 13.585 12 13.585ZM12 10.71C11.6548 10.71 11.375 10.9898 11.375 11.335V12.335C11.375 12.6801 11.6548 12.96 12 12.96C12.3451 12.9599 12.625 12.6801 12.625 12.335V11.335C12.625 10.9898 12.3451 10.71 12 10.71Z" fill="black"/>
<path fill-rule="evenodd" clip-rule="evenodd" d="M6.5 0C8.42997 3.30998e-05 10 1.57002 10 3.5V5.24512C11.0402 5.4724 11.8228 6.34228 11.9688 7.39746C11.4148 7.40551 10.9079 7.60924 10.501 7.9502V7.74707C10.501 7.21407 10.1098 6.76229 9.59082 6.69629C7.55485 6.4363 5.47149 6.43639 3.43652 6.69238C2.90276 6.76059 2.50098 7.21423 2.50098 7.74707V11.252C2.50098 11.785 2.89213 12.2367 3.41113 12.3027C4.82609 12.4837 6.26345 12.5319 7.69141 12.4619L7.07324 13.5234H7.0752C6.98827 13.6714 6.92795 13.8294 6.87598 13.9883C6.75198 13.9903 6.62595 14 6.50195 14C5.41095 14 4.30766 13.93 3.22266 13.791C1.9568 13.6299 1.00195 12.5379 1.00195 11.252V7.74707C1.00195 6.54489 1.84485 5.51112 3 5.24805V3.5C3 1.57 4.57 0 6.5 0ZM6.5 1.5C5.397 1.5 4.5 2.397 4.5 3.5V5.08008C5.82967 4.97786 7.17016 4.97772 8.5 5.08008V3.5C8.5 2.39702 7.60297 1.50003 6.5 1.5Z" fill="black"/>
</svg>

<!-- This Source Code Form is subject to the terms of the Mozilla Public
   - License, v. 2.0. If a copy of the MPL was not distributed with this
   - file, You can obtain one at http://mozilla.org/MPL/2.0/. -->
<svg xmlns="http://www.w3.org/2000/svg" width="16" height="16" fill="context-fill" fill-opacity="context-fill-opacity" viewBox="0 0 16 16">
    <path fill-rule="evenodd" d="M11.04 9.194a1.11 1.11 0 0 1 1.92 0l2.888 4.96c.397.683-.026 1.565-.81 1.661a25 25 0 0 1-6.06.001 1.11 1.11 0 0 1-.825-1.664zm.96 4.391a.625.625 0 1 0 0 1.25.625.625 0 0 0 0-1.25m0-2.875a.625.625 0 0 0-.625.625v1a.625.625 0 0 0 1.25 0v-1A.625.625 0 0 0 12 10.71M6.5 0C8.43 0 10 1.57 10 3.5v1.745a2.56 2.56 0 0 1 1.969 2.152 2.32 2.32 0 0 0-1.468.553v-.203c0-.533-.391-.985-.91-1.05-2.036-.26-4.12-.26-6.154-.005A1.07 1.07 0 0 0 2.5 7.747v3.505c0 .533.391.985.91 1.05 1.415.182 2.852.23 4.28.16l-.618 1.061h.002a2.4 2.4 0 0 0-.199.465c-.124.002-.25.012-.374.012a26 26 0 0 1-3.28-.209 2.56 2.56 0 0 1-2.22-2.539V7.747c0-1.202.843-2.236 1.998-2.499V3.5C3 1.57 4.57 0 6.5 0m0 1.5c-1.103 0-2 .897-2 2v1.58c1.33-.102 2.67-.102 4 0V3.5c0-1.103-.897-2-2-2" clip-rule="evenodd" />
</svg>
